static/img/5L-Labs-Blue.svg

<svg xmlns="http://www.w3.org/2000/svg" width="303.278" height="480.459" viewBox="0 0 303.278 480.459"><g fill="#38bdf8"><path d="M137.24 18.519c-5.106 0-9.26-4.154-9.26-9.259S132.134 0 137.24 0s9.26 4.154 9.26 9.26-4.154 9.259-9.26 9.259M172.638 43.444c-6.753 0-12.246-5.495-12.246-12.247s5.493-12.247 12.246-12.247c6.752 0 12.246 5.495 12.246 12.247s-5.494 12.247-12.246 12.247M146.763 57.931a6.397 6.397 0 0 1-6.391-6.39 6.397 6.397 0 0 1 6.391-6.391 6.4 6.4 0 0 1 6.391 6.391 6.397 6.397 0 0 1-6.391 6.39M82.492 89.847c0-13.129 9.054-23.811 21.524-26.541 2.037-.464 4.405-.709 6.607-.709h82.264c15.643 0 27.896 11.969 27.896 27.25 0 10.709-6.038 19.799-15.043 24.239-1.071.545-2.332 1.045-3.485 1.449-1.126.395-2.327.86-3.52 1.11q-.814.197-1.646.356c-1 3.531-2.599 12.172-3.13 32.216-.406 15.298.041 29.398.046 29.556l.009.22-.003.221c-.006.514-.344 41.908 15.595 69.655 49.695 86.505 73.169 132.123 84.152 156.726 9.38 21.026 9.475 26.364 9.505 29.364l.006.671a182 182 0 0 1-.006 3.996c-.124 9.88-1.178 20.401-10.268 28.413-9.741 8.586-27.155 12.42-56.405 12.42H66.81c-1.07 0-2.247-.006-3.284-.017-27.351-.27-43.86-4.132-53.244-12.402C1.199 460.033.139 449.524.014 439.65l-.007-.704c-.009-1.101-.009-2.202.001-3.315l.005-.669c.03-3.003.123-8.348 9.534-29.433 10.996-24.618 34.473-70.233 84.123-156.66 16.02-27.885 15.602-69.249 15.596-69.663l-.003-.219.006-.221c.008-.205.452-14.279.047-29.549-.532-20.069-2.134-28.712-3.136-32.237q-.555-.105-1.102-.228c-1.223-.231-2.456-.681-3.609-1.064-1.19-.394-2.485-.886-3.588-1.429-9.197-4.38-15.389-13.566-15.389-24.412m18.293 0c0 4.982 3.976 8.76 9.27 8.86 3.196.062 6.266 1.398 8.673 3.743.966.942 1.928 2.133 2.832 3.841 2.814 5.361 5.226 15.837 5.988 40.547.487 15.757.072 30.34.012 32.321l.001.201c.028 4.736-.234 44.425-16.038 74.962a99 99 0 0 1-2.073 3.803c-8.304 14.456-29.573 51.484-49.668 88.72q-1.423 2.633-2.833 5.266c-26.566 49.529-35.29 70.434-37.685 78.558-.078.257-.152.531-.219.762-.596 2.106-.744 3.249-.753 3.862v.671c.002 9.657.204 14.931 4.086 18.352 5.907 5.207 20.747 7.841 44.201 7.85h170.116c23.455-.009 38.296-2.643 44.203-7.85 3.881-3.419 4.084-8.692 4.086-18.346v-.678c-.011-.63-.166-1.818-.803-4.036-.065-.217-.134-.476-.209-.715-2.441-8.201-11.21-29.142-37.636-78.412a1888 1888 0 0 0-3.092-5.747c-20.005-37.048-41.12-73.813-49.398-88.222a99 99 0 0 1-2.535-4.705c-15.597-30.868-15.628-70.568-15.595-74.287l-.006-.208c-.078-2.606-.456-16.81.017-32.122.775-25.115 3.254-35.532 6.131-40.815.857-1.562 1.764-2.679 2.676-3.572q.14-.14.286-.273c2.364-2.179 5.33-3.41 8.405-3.473 5.292-.101 9.267-3.878 9.267-8.858 0-5.101-4.135-8.957-9.604-8.957h-75.491c-.108 0-7.215.026-7.301.073-5.317.096-9.31 3.886-9.31 8.884"/><path d="M168.518 102.377a6.31 6.31 0 0 1-6.305-6.305 6.31 6.31 0 0 1 6.305-6.305 6.31 6.31 0 0 1 6.305 6.305 6.31 6.31 0 0 1-6.305 6.305M142.45 125.609a6.42 6.42 0 0 1-6.412-6.412 6.42 6.42 0 0 1 6.412-6.412 6.42 6.42 0 0 1 6.412 6.412 6.42 6.42 0 0 1-6.412 6.412M159.888 162.061c-4.676 0-8.481-3.804-8.481-8.481s3.805-8.48 8.481-8.48 8.481 3.804 8.481 8.48-3.805 8.481-8.481 8.481M146.763 220.426c-5.984 0-10.853-4.869-10.853-10.854s4.869-10.854 10.853-10.854 10.854 4.869 10.854 10.854-4.87 10.854-10.854 10.854M168.518 260.604c-4.36 0-7.907-3.548-7.907-7.907 0-4.36 3.547-7.908 7.907-7.908s7.907 3.548 7.907 7.908c0 4.359-3.547 7.907-7.907 7.907M133.638 297.733c-5.878 0-10.661-4.782-10.661-10.661s4.783-10.66 10.661-10.66 10.66 4.782 10.66 10.66-4.783 10.661-10.66 10.661M85.245 318.126c.914-.871 5.692-3.962 10.189-5.043 1.054-.253 2.113-.386 3.123-.362 2.093.049 4.32.867 6.768 2.043 4.482 2.149 9.751 5.484 16.453 7.398 1.903.545 4.201.697 6.786.558 8.994-.478 21.365-4.485 31.834-7.568 3.158-.93 6.142-1.775 8.807-2.413 1.317-.316 2.756-.522 4.285-.63 1.695-.12 3.534-.117 5.476-.011 13.868.773 32.369 6.71 39.533 8.843q.737.22 1.306.381c42.786 77.339 54.35 105.563 56.259 112.692.534 1.994.418 5.568.326 7.951q-.012.285-.02.555c-.089 2.214-1.05 4.355-2.561 5.8-.096.086-.195.196-.296.277a7.3 7.3 0 0 1-2.634 1.507c-9.465 3.032-23.802 3.557-34.291 3.557h-169.9c-10.466 0-24.822-.523-34.29-3.556a7.3 7.3 0 0 1-2.615-1.493c-1.695-1.506-2.789-3.823-2.871-6.151-.158-4.565-.122-6.896.298-8.486 2.133-7.947 9.212-28.539 58.035-115.85"/></g></svg>

<?xml version="1.0" encoding="UTF-8"?>
<!DOCTYPE svg PUBLIC "-//W3C//DTD SVG 1.1//EN" "http://www.w3.org/Graphics/SVG/1.1/DTD/svg11.dtd">
<svg version="1.1" xmlns="http://www.w3.org/2000/svg" xmlns:xlink="http://www.w3.org/1999/xlink" x="0" y="0" width="303.278" height="480.459" viewBox="0, 0, 303.278, 480.459">
  <g id="Layer_2">
    <path d="M137.24,18.519 C132.134,18.519 127.98,14.365 127.98,9.26 C127.98,4.154 132.134,0 137.24,0 C142.346,0 146.5,4.154 146.5,9.26 C146.5,14.365 142.346,18.519 137.24,18.519" fill="#38bdf8" id="path63924"/>
    <path d="M172.638,43.444 C165.885,43.444 160.392,37.949 160.392,31.197 C160.392,24.445 165.885,18.95 172.638,18.95 C179.39,18.95 184.884,24.445 184.884,31.197 C184.884,37.949 179.39,43.444 172.638,43.444" fill="#38bdf8" id="path63722"/>
    <path d="M146.763,57.931 C143.238,57.931 140.372,55.065 140.372,51.541 C140.372,48.016 143.238,45.15 146.763,45.15 C150.287,45.15 153.154,48.016 153.154,51.541 C153.154,55.065 150.287,57.931 146.763,57.931" fill="#38bdf8" id="path64150"/>
    <path d="M82.492,89.847 C82.492,76.718 91.546,66.036 104.016,63.306 C106.053,62.842 108.421,62.597 110.623,62.597 L192.887,62.597 C208.53,62.597 220.783,74.566 220.783,89.847 C220.783,100.556 214.745,109.646 205.74,114.086 C204.669,114.631 203.408,115.131 202.255,115.535 C201.129,115.93 199.928,116.395 198.735,116.645 C198.192,116.776 197.644,116.895 197.089,117.001 C196.089,120.532 194.49,129.173 193.959,149.217 C193.553,164.515 194,178.615 194.005,178.773 L194.014,178.993 L194.011,179.214 C194.005,179.728 193.667,221.122 209.606,248.869 C259.301,335.374 282.775,380.992 293.758,405.595 C303.138,426.621 303.233,431.959 303.263,434.959 L303.269,435.63 C303.28,436.739 303.28,437.837 303.271,438.933 C303.269,439.155 303.266,439.404 303.263,439.626 C303.139,449.506 302.085,460.027 292.995,468.039 C283.254,476.625 265.84,480.459 236.59,480.459 L66.81,480.459 C65.74,480.459 64.563,480.453 63.526,480.442 C36.175,480.172 19.666,476.31 10.282,468.04 C1.199,460.033 0.139,449.524 0.014,439.65 C0.011,439.423 0.009,439.171 0.007,438.946 C-0.002,437.845 -0.002,436.744 0.008,435.631 L0.013,434.962 C0.043,431.959 0.136,426.614 9.547,405.529 C20.543,380.911 44.02,335.296 93.67,248.869 C109.69,220.984 109.272,179.62 109.266,179.206 L109.263,178.987 L109.269,178.766 C109.277,178.561 109.721,164.487 109.316,149.217 C108.784,129.148 107.182,120.505 106.18,116.98 C105.81,116.91 105.442,116.834 105.078,116.752 C103.855,116.521 102.622,116.071 101.469,115.688 C100.279,115.294 98.984,114.802 97.881,114.259 C88.684,109.879 82.492,100.693 82.492,89.847 z M100.785,89.847 C100.785,94.829 104.761,98.607 110.055,98.707 C113.251,98.769 116.321,100.105 118.728,102.45 C119.694,103.392 120.656,104.583 121.56,106.291 C124.374,111.652 126.786,122.128 127.548,146.838 C128.035,162.595 127.62,177.178 127.56,179.159 C127.56,179.215 127.56,179.288 127.561,179.36 C127.589,184.096 127.327,223.785 111.523,254.322 C110.862,255.601 110.17,256.87 109.45,258.125 C101.146,272.581 79.877,309.609 59.782,346.845 C58.834,348.6 57.889,350.356 56.949,352.111 C30.383,401.64 21.659,422.545 19.264,430.669 C19.186,430.926 19.112,431.2 19.045,431.431 C18.449,433.537 18.301,434.68 18.292,435.293 L18.292,435.964 C18.294,445.621 18.496,450.895 22.378,454.316 C28.285,459.523 43.125,462.157 66.579,462.166 L236.695,462.166 C260.15,462.157 274.991,459.523 280.898,454.316 C284.779,450.897 284.982,445.624 284.984,435.97 L284.984,435.292 C284.973,434.662 284.818,433.474 284.181,431.256 C284.116,431.039 284.047,430.78 283.972,430.541 C281.531,422.34 272.762,401.399 246.336,352.129 C245.31,350.213 244.278,348.297 243.244,346.382 C223.239,309.334 202.124,272.569 193.846,258.16 C192.956,256.61 192.111,255.04 191.311,253.455 C175.714,222.587 175.683,182.887 175.716,179.168 C175.715,179.112 175.713,179.036 175.71,178.96 C175.632,176.354 175.254,162.15 175.727,146.838 C176.502,121.723 178.981,111.306 181.858,106.023 C182.715,104.461 183.622,103.344 184.534,102.451 C184.628,102.358 184.723,102.267 184.82,102.178 C187.184,99.999 190.15,98.768 193.225,98.705 C198.517,98.604 202.492,94.827 202.492,89.847 C202.492,84.746 198.357,80.89 192.888,80.89 L117.397,80.89 C117.289,80.89 110.182,80.916 110.096,80.963 C104.779,81.059 100.786,84.849 100.786,89.847" fill="#38bdf8" id="path62022"/>
    <path d="M168.518,102.377 C165.041,102.377 162.213,99.549 162.213,96.072 C162.213,92.595 165.041,89.767 168.518,89.767 C171.995,89.767 174.823,92.595 174.823,96.072 C174.823,99.549 171.995,102.377 168.518,102.377" fill="#38bdf8" id="path63310"/>
    <path d="M142.45,125.609 C138.915,125.609 136.038,122.733 136.038,119.197 C136.038,115.661 138.915,112.785 142.45,112.785 C145.986,112.785 148.862,115.661 148.862,119.197 C148.862,122.733 145.986,125.609 142.45,125.609" fill="#38bdf8" id="path63088"/>
    <path d="M159.888,162.061 C155.212,162.061 151.407,158.257 151.407,153.58 C151.407,148.904 155.212,145.1 159.888,145.1 C164.564,145.1 168.369,148.904 168.369,153.58 C168.369,158.257 164.564,162.061 159.888,162.061" fill="#38bdf8" id="path62686"/>
    <path d="M146.763,220.426 C140.779,220.426 135.91,215.557 135.91,209.572 C135.91,203.587 140.779,198.718 146.763,198.718 C152.747,198.718 157.617,203.587 157.617,209.572 C157.617,215.557 152.747,220.426 146.763,220.426" fill="#38bdf8" id="path62440"/>
    <path d="M168.518,260.604 C164.158,260.604 160.611,257.056 160.611,252.697 C160.611,248.337 164.158,244.789 168.518,244.789 C172.878,244.789 176.425,248.337 176.425,252.697 C176.425,257.056 172.878,260.604 168.518,260.604" fill="#38bdf8" id="path62894"/>
    <path d="M133.638,297.733 C127.76,297.733 122.977,292.951 122.977,287.072 C122.977,281.194 127.76,276.412 133.638,276.412 C139.515,276.412 144.298,281.194 144.298,287.072 C144.298,292.951 139.515,297.733 133.638,297.733" fill="#38bdf8" id="path63518"/>
    <path d="M85.245,318.126 C86.159,317.255 90.937,314.164 95.434,313.083 C96.488,312.83 97.547,312.697 98.557,312.721 C100.65,312.77 102.877,313.588 105.325,314.764 C109.807,316.913 115.076,320.248 121.778,322.162 C123.681,322.707 125.979,322.859 128.564,322.72 C137.558,322.242 149.929,318.235 160.398,315.152 C163.556,314.222 166.54,313.377 169.205,312.739 C170.522,312.423 171.961,312.217 173.49,312.109 C175.185,311.989 177.024,311.992 178.966,312.098 C192.834,312.871 211.335,318.808 218.499,320.941 C218.99,321.087 219.426,321.215 219.805,321.322 C262.591,398.661 274.155,426.885 276.064,434.014 C276.598,436.008 276.482,439.582 276.39,441.965 C276.381,442.155 276.376,442.34 276.37,442.52 C276.281,444.734 275.32,446.875 273.809,448.32 C273.713,448.406 273.614,448.516 273.513,448.597 C272.775,449.259 271.88,449.784 270.879,450.104 C261.414,453.136 247.077,453.661 236.588,453.661 L66.688,453.661 C56.222,453.661 41.866,453.138 32.398,450.105 C31.405,449.787 30.519,449.265 29.783,448.612 C28.088,447.106 26.994,444.789 26.912,442.461 C26.754,437.896 26.79,435.565 27.21,433.975 C29.343,426.028 36.422,405.436 85.245,318.125" fill="#38bdf8" id="path62240"/>
  </g>
</svg>
